!!!OTL: ES FLOG EIN KLEINS WALDVOEGELEIN
!!!ARE: Europa, Mitteleuropa, Deutschland
!!!SCT: E1653
!!!YEM: Copyright 1995, estate of Helmut Schaffrath.
**kern
*ICvox
*Ivox
*M4/4
*k[b-]
*F:
{4f
=1
4f
4cc
4a
4f
=2
4.e
8f
4g}
{4c
=3
4d
4f
4f
4e
=4
2f
4r}
{4f
=5
4f
4cc
4a
4f
=6
4.e
8f
4g}
{4c
=7
4d
4f
4f
4e
=8
2f
4r}
{4a
=9
4f
4cc
8cc
8b-
4a
=10
2g
4g}
{4b-
=11
4a
4g
4a
4f
=12
2g
4r}
{4cc
=13
4b-
4a
4g
4f
=14
4.e
8f
4g}
{4c
=15
4d
4f
4f
4e
=16
2.f}
==
!!!AGN: Staende -, Hofe -, Ritter - Lied, Liebe
!!!ONB: ESAC (Essen Associative Code) Database: ERK3
!!!AMT: simple quadruple
!!!AIN: vox
!!!EED: Helmut Schaffrath
!!!EEV: 1.0
*-
